X:457
T:Maiden That Jigs It in Style, The
R:jig
Z:hn-jig-457
M:6/8
L:1/8
K:Ador
dcA ~G3 | GEG G2A | cde ede | cAA ABc |
dcA GEG | GEG G2A | cde ede |1 cAA A2e :|2 cAA Aef ||
|: ~g3 ged | cAB c2d | eaa age | ged deg |
age ged | cAB c2d | ede ged |1 cAA A2f :|2 cAA A2e ||

